fs/vehicle_subway_16_filled.svg

<svg viewBox="0 0 16 16" fill="none" xmlns="http://www.w3.org/2000/svg" height="1em" width="1em">
  <path d="M6 4.5C6 4.22386 6.22386 4 6.5 4H9.5C9.77614 4 10 4.22386 10 4.5C10 4.77614 9.77614 5 9.5 5H6.5C6.22386 5 6 4.77614 6 4.5ZM2 4.5C2 3.11929 3.11929 2 4.5 2H11.5C12.8807 2 14 3.11929 14 4.5V10.5C14 11.8807 12.8807 13 11.5 13H10.8827L12.7479 14.0659C12.9877 14.2029 13.071 14.5083 12.934 14.748C12.797 14.9878 12.4916 15.0711 12.2518 14.9341L8.86712 13H7.13273L3.74806 14.9341C3.5083 15.0711 3.20288 14.9878 3.06587 14.7481C2.92886 14.5083 3.01216 14.2029 3.25192 14.0659L5.1172 13H4.5C3.11929 13 2 11.8807 2 10.5V4.5ZM3 8H13V4.5C13 3.67157 12.3284 3 11.5 3H4.5C3.67157 3 3 3.67157 3 4.5V8ZM7 10C7 9.44772 6.55228 9 6 9C5.44772 9 5 9.44772 5 10C5 10.5523 5.44772 11 6 11C6.55228 11 7 10.5523 7 10ZM10 11C10.5523 11 11 10.5523 11 10C11 9.44772 10.5523 9 10 9C9.44772 9 9 9.44772 9 10C9 10.5523 9.44772 11 10 11Z" fill="#212121"/>
</svg>

<svg viewBox="0 0 16 16" fill="none" xmlns="http://www.w3.org/2000/svg" height="1em" width="1em">
  <path d="M6 4.5a.5.5 0 0 1 .5-.5h3a.5.5 0 0 1 0 1h-3a.5.5 0 0 1-.5-.5Zm-4 0A2.5 2.5 0 0 1 4.5 2h7A2.5 2.5 0 0 1 14 4.5v6a2.5 2.5 0 0 1-2.5 2.5h-.617l1.865 1.066a.5.5 0 1 1-.496.868L8.867 13H7.133l-3.385 1.934a.5.5 0 0 1-.496-.868L5.117 13H4.5A2.5 2.5 0 0 1 2 10.5v-6ZM3 8h10V4.5A1.5 1.5 0 0 0 11.5 3h-7A1.5 1.5 0 0 0 3 4.5V8Zm4 2a1 1 0 1 0-2 0 1 1 0 0 0 2 0Zm3 1a1 1 0 1 0 0-2 1 1 0 0 0 0 2Z" fill="#212121"/>
</svg>
